packages/tokens/icons/windowExpand/size24Px.svg

<svg xmlns="http://www.w3.org/2000/svg" fill="none" viewBox="0 0 24 24" width="1em" height="1em"><rect width="19" height="17" x="2.5" y="3.5" stroke="currentColor" rx="1.5"/><path stroke="currentColor" stroke-linecap="round" stroke-linejoin="round" d="M13.5 9.5h3m0 0v3m0-3-3 3m-2 5h-3m0 0v-3m0 3 3-3"/><path stroke="currentColor" d="M2.72 6.5h18.72"/></svg>

<svg viewBox="0 0 24 24" fill="none" xmlns="http://www.w3.org/2000/svg" width="1em" height="1em"><rect x="2.5" y="3.5" width="19" height="17" rx="1.5" stroke="currentColor"/><path d="M13.5 9.5H16.5M16.5 9.5V12.5M16.5 9.5L13.5 12.5" stroke="currentColor" stroke-linecap="round" stroke-linejoin="round"/><path d="M11.5 17.5H8.5M8.5 17.5V14.5M8.5 17.5L11.5 14.5" stroke="currentColor" stroke-linecap="round" stroke-linejoin="round"/><path d="M2.72003 6.5L21.44 6.5" stroke="currentColor"/></svg>
